X:1
T:James Gibb editions
T:Tantum ergo - Palestrina
T:#
%%score [ 1 2 3 4 ]
L:1/8
Q:1/4=121
M:4/4
K:C
V:1 treble nm="Soprano" snm="S"
V:2 treble nm="Alto" snm="A"
V:3 treble-8 nm="Tenor" snm="T"
V:4 bass nm="Bass" snm="B"
V:1
"^Tantum ergo""^Giovanni Pierluigi da Palestrina\n(1525-94)" E8 | E8 | F8 | (E8 | D8) | G4 G4 | %6
w: Tan-|tum|er-|go||sa- cra-|
 (A4 c4- | c2 BA B4) | c8 |[M:4/4] z8 | (c8 | d8) | c4 c4- | c4 B4 | (A8- | c8 | B8) | A8 | G8 | %19
w: men\- *||tum||Ve\-||ne- re\-|* mur|cer\-|||nu-|i,|
 G8 | A8 | c8 | B4 A4- | A4 ^G4 | A8 | A8 | z8 | A8 | B8 | G8 | E4 A4- | A4 (G4- | G2 F2 E4) | %33
w: Et|an-|ti-|quum do\-|* cu-|men-|tum||No-|vo|ce-|dat ri\-|* tu\-||
 D8- | D4 z4 | G8 | G4 G4- | G4 E4 | F4 G4 | A8 | A8 | z8 | (A8 | B6) B2 | G8 | E8 | F8- | F4 F4 | %48
w: i;||Prae-|stet fi\-|* des|sup- ple-|men-|tum||Sen\-|* su-|um|de-|fec\-|* tu-|
 E8- | E4 z4 | (A8 | B6) B2 | G8 | E8 | F8- | F4 F4 | E8- | E8 | E8 | !fermata!E8 || %60
w: i,||sen\-|* su-|um|de-|fec\-|* tu-|i.||||
[M:3/4] ^G4 G2 | A4 A2 | G4 G2 | G4 G2 | c3 c c2 |[M:3/4] d2 c3 c | !fermata!B6 | B4 B2 | c4 c2 | %69
w: Ge- ni-|to- ri|Ge- ni-|to- que|Laus et ju-|bi- la- ti-|o'|Sa- lus,|ho- nor,|
 B4 c2 | B4 B2 | c3 c A2 | A2 A3 A | !fermata!A6 | c4 c2 | B4 B2 | B4 c2 | B4 B2 | A3 A A2 | %79
w: vir- tus|quo- que|Sit et be-|ne- dic- ti-|o;|Pro- ce-|den- ti|ab u-|tro- que|Com- par sit|
 A2 (^G4 | A4) A2 | !fermata!^G6 ||[M:4/4] (A8- | B4 A4) | !fermata!^G8 |] %85
w: lau- da\-|* ti-|o.|A\-||men.|
V:2
 C8 | (B,6 C2) | D8 | G,8- | G,4 D4 | E4 (G4- | G2 ^FE F4) | G8 | E4 G4- |[M:4/4] G2 (F2 E2 D2) | %10
w: Tan-|tum *|er-|go|* sa-|cra- men\-||tum|Ve- ne\-|* re\- * *|
 C4 z2 C2 | B,2 (A,4 ^G,2 | A,3 B, C4) | D4 (G4- | G2 FE F4 | E6) E2 | D8- | D8 | z4 D4 | E4 G4- | %20
w: mur, ve-|ne- re\- *||mur cer\-||* nu|i,||Et|an- ti\-|
 G4 F4 | E8 | D4 (F4- | F2 E2 D4 | D2 ^CB, C4) | D8 | B,4 C4 | A,8 | G,4 D4- | D4 E4- | %30
w: * quum|do-|cu- men\-|||tum|No- vo|ce-|dat, no\-|* vo|
 E2 C4 A,2- | A,2 (D3 CB,A, | B,4) C4 | A,8 | z4 B,4- | B,4 E4 | D8 | E8 | (D3 C B,4) | A,4 (D4- | %40
w: * ce- dat|* ri\- * * *|* tu-|i;|Prae\-|* stet|fi-|des|sup\- * *|ple- men\-|
 D2 ^CB, C4 | D3 =C B,4 | A,8) | G,8 | z8 | z8 | (C8 | D6) D2 | B,8 | C8 | A,4 A,4 | G,4 (D4- | %52
w: |||tum|||Sen\-|* su-|um|de-|fec- tu-|i, sen\-|
 D4 E4 | E2) E2 C4- | C4 (A,4- | A,4 B,2) (A,2- | A,2 ^G,^F, G,4 | A,6 B,2 | C6) C2 | %59
w: |* su- um|* de\-|* * fec\-|||* tu-|
 !fermata!B,8 ||[M:3/4] E4 E2 | C4 F2 | D4 D2 | E4 E2 | G3 G G2 |[M:3/4] G2 A3 A | !fermata!G6 | %67
w: i.|Ge- ni-|to- ri|Ge- ni-|\-to- que|Laus et ju-|bi- la- ti-|o,|
 G4 G2 | G4 G2 | G4 E2 | G4 G2 | E3 E F2 | F2 E3 E | !fermata!D6 | G4 G2 | G4 G2 | G4 E2 | G4 G2 | %78
w: Sa- lus,|ho- nor,|vir- tus|quo- que|Sit et be-|ne- dic- ti-|o;|Pro- ce-|den- ti|ab u-|tro- que|
 E4 F2 | F2 E4 | E4 E2 | !fermata!E6 ||[M:4/4] (E4 F4 | G4 C2 D2) | !fermata!E8 |] %85
w: Com- par|sit lau-|da- ti-|o.|A\- *||men.|
V:3
 A8 | ^G8 | (A6 B2) | c4 (c4- | c2 BA B4- | B4 e4- | e2) d2 c4 | d8 | c4 z4 | %9
w: Tan-|tum|er\- *|go sa\-|||* cra- men-||tum|
[M:4/4][K:treble-8] c6 B2 | A2 G2 F4- | F2 E2 (D4 | E6 C2) | G8 | z4 A4- | A4 E4 | G8 | D6 (d2- | %18
w: Ve- ne-|re- mur, ve\-|* ne- re\-||mur,|ve\-|* ne-|re-|mur cer\-|
 d2 c4) B2 | (c3 d e4 | d4) D4 | E4 G4- | G4 F4 | D4 D4 | E8 | D4 F4 | G4 (A2 G2- | G2 ^FE F4) | %28
w: * * nu-|i, * *|* Et|an- ti\-|* quum|do- cu-|men-|tum No-|vo ce\- *||
 G8 | z8 | c8 | d4 B4 | G4 (A2 G2- | G2 ^FE F2) F2 | G8 | z4 c4- | c4 B4 | (c6 B2 | A4) (G4- | %39
w: dat,||no-|vo ce-|dat ri\- *|* * * * tu-|i;|Prae\-|* stet|fi\- *|* des|
 G2 FE F4) | E8 | F4 G4 | D8 | z4 (d4- | d4 e4- | e2) e2 c4- | c4 A4- | A4 (B4- | B4 G4- | %49
w: |sup-|ple- men-|tum|Sen\-||* su- um|* de\-|* fec\-||
 G4 A2 G2- | G2 ^FE F2) F2 | G8 | z8 | z8 | c8- | d6 d2 | B8 | (c6 B2) | A4 A4 | !fermata!^G8 || %60
w: |* * * * tu-|i,|||sen\-|* su-|um|de\- *|fec- tu-|i.|
[M:3/4] B4 B2 | A4 d2 | B4 B2 | c4 c2 | e3 e e2 |[M:3/4][K:treble-8] d2 e3 ^f | !fermata!g6 | %67
w: Ge- ni-|to- ri|Ge- ni-|to- que|Laus et ju-|bi- la- ti-|o,|
 d4 d2 | e4 e2 | d4 c2 | d4 d2 | c3 c d2 | d2 ^c3 c | !fermata!d6 | e4 e2 | d4 e2 | d4 c2 | d4 d2 | %78
w: Sa- lus,|ho- nor,|vir- tus|quo- que|Sit et be-|ne- dic- ti-|o;|Pro- ce-|den- ti|ab u-|tro- que|
 c3 c c2 | d2 (B4 | c4) c2 | !fermata!B6 ||[M:4/4] (c4 d4- | d2 G2 A4) | !fermata!B8 |] %85
w: Com- par sit|lau- da\-|* ti-|o.|A\- *||men.|
V:4
 A,,8 | E,8 | D,8 | C,8 | G,8 | E,8 | (A,8 | G,8) | C,8 |[M:4/4] z8 | F,6 E,2 | (D,2 C,2 B,,4) | %12
w: Tan-|tum|er-|go|sa-|cra-|men\-||tum||Ve- ne-|re\- * *|
 (A,,8- | G,,8) | D,8 | A,,4 C,4 | G,,4 (G,4- | G,2 ^F,E, F,4 | G,6) G,2 | C,4 z4 | D,8 | C,4 C,4 | %22
w: mur,||ve-|ne- re-|mur cer\-||* nu-|i,|Et|an- ti-|
 G,,4 D,4- | D,2 C,2 B,,4 | A,,8 | z4 D,4 | E,4 (C,4- | D,8) | G,,8 | G,8 | A,4 F,4 | D,4 G,4- | %32
w: quum do\-|* cu- men-|tum|No-|vo ce\-||dat,|no-|vo ce-|dat ri\-|
 G,4 C,4 | D,8 | z4 G,4- | G,4 C,4 | G,8 | C,8 | D,4 G,,4 | D,8 | A,,8 | D,4 G,,2 (G,2- | %42
w: * tu-|i;|Prae\-|* stet|fi-|des|sup- ple-|men-|tum,|sup- ple- men\-|
 G,2 ^F,E, F,4) | G,4 z4 | (G,8 | A,6) A,2 | F,8 | D,8 | (E,8 | C,8 | D,6) D,2 | G,,4 z4 | (G,8 | %53
w: |tum|Sen\-|* su-|um|de-|fec\-||* tu-|i,|sen\-|
 A,6) A,2 | F,8 | D,8 | (E,8 | A,,8- | A,,4) A,,4 | !fermata![E,,E,]8 ||[M:3/4] E,4 E,2 | F,4 D,2 | %62
w: * su-|um|de-|fec\-||* tu-|i.|Ge- ni-|to- ri|
 G,4 G,2 | C,4 C,2 | C3 C C2 |[M:3/4] B,2 A,3 A, | !fermata!G,6 | G,4 G,2 | E,4 C,2 | G,4 A,2 | %70
w: Ge- ni-|to- que|Laus et ju-|bi- la- ti-|o,|Sa- lus,|ho- nor,|vir- tus|
 G,4 G,2 | A,3 A, F,2 | D,2 A,3 A, | !fermata!D,6 | C,4 E,2 | G,4 E,2 | G,4 A,2 | G,4 G,2 | %78
w: quo- que|Sit et be-|ne- dic- ti-|o;|Pro- ce-|den- ti|ab u-|tro- que|
 A,3 A, F,2 | D,2 (E,4 | A,,4) A,,2 | !fermata!E,6 ||[M:4/4] (A,4 D,4 | G,4 F,4) | !fermata!E,8 |] %85
w: Com- par sit|lau- da\-|* ti-|o.|A\- *||men.|

